16/actions/stroke-join-bevel.svg

<svg xmlns="http://www.w3.org/2000/svg" width="16" height="16" viewBox="0 0 16 16">
 <defs>
  <style id="current-color-scheme" type="text/css">
   .ColorScheme-Text { color:#565656; } .ColorScheme-Highlight { color:#5294e2; }
  </style>
 </defs>
 <path style="fill:currentColor" class="ColorScheme-Text" d="M 6.2421875 2 L 2 6.2421875 L 2.0078125 6.25 L 2 6.25 L 2 14 L 6 14 L 6 8.65625 L 8.65625 6 L 14 6 L 14 2 L 6.2421875 2 z M 6.65625 3 L 13 3 L 13 5 L 8.2421875 5 L 5 8.2421875 L 5 13 L 3 13 L 3 6.65625 L 6.65625 3 z M 8 8 L 8 14 L 12 14 L 12 12 L 14 12 L 14 8 L 8 8 z M 9 9 L 13 9 L 13 11 L 11 11 L 11 13 L 9 13 L 9 9 z"/>
</svg>

<svg xmlns="http://www.w3.org/2000/svg" viewBox="0 0 16 16">
  <defs id="defs3051">
    <style type="text/css" id="current-color-scheme">
      .ColorScheme-Text {
        color:#FFFFFF;
      }
      </style>
  </defs>
 <path style="fill:currentColor;fill-opacity:1;stroke:none" 
     d="m6.242 2l-4.242 4.242.008.008h-.008v7.75h4v-5.344l2.656-2.656h5.344v-4h-7.756zm.414 1h6.344v2h-4.758l-3.242 3.242v4.758h-2v-6.344zm1.344 5v6h4v-2h2v-4h-5zm1 1h4v2h-2v2h-2z"
     class="ColorScheme-Text"
     />
</svg>
